packages/kaspersky-hexa-ui-icons/src/iconsSVGs/16/Loader.svg

<svg width="16" height="16" viewBox="0 0 16 16" fill="none" xmlns="http://www.w3.org/2000/svg">
<path fill-rule="evenodd" clip-rule="evenodd" d="M7.34961 2.0001C7.34961 1.64111 7.64062 1.3501 7.99961 1.3501C11.6723 1.3501 14.6496 4.3274 14.6496 8.0001C14.6496 11.6728 11.6723 14.6501 7.99961 14.6501C4.32692 14.6501 1.34961 11.6728 1.34961 8.0001C1.34961 7.64111 1.64062 7.3501 1.99961 7.3501C2.35859 7.3501 2.64961 7.64111 2.64961 8.0001C2.64961 10.9548 5.04489 13.3501 7.99961 13.3501C10.9543 13.3501 13.3496 10.9548 13.3496 8.0001C13.3496 5.04537 10.9543 2.6501 7.99961 2.6501C7.64062 2.6501 7.34961 2.35908 7.34961 2.0001Z" fill="black"/>
</svg>

<svg xmlns="http://www.w3.org/2000/svg" width="16" height="16" fill="none" viewBox="0 0 16 16"><path fill="#000" fill-rule="evenodd" d="M7.3496 2.0001a.65.65 0 0 1 .65-.65c3.6727 0 6.65 2.9773 6.65 6.65s-2.9773 6.65-6.65 6.65-6.65-2.9773-6.65-6.65a.65.65 0 1 1 1.3 0c0 2.9547 2.3953 5.35 5.35 5.35s5.35-2.3953 5.35-5.35-2.3953-5.35-5.35-5.35a.65.65 0 0 1-.65-.65"/></svg>
